X:19
T:Dusty Miller,The. TJD.19
M:6/8
L:1/8
Q:1/4=100
S:T.J.Dixon MS1, Lincolnshire, 1798
R:slip jig
A:Lincolnshire, Holton le Moor
Z:vmp.R.Greig2010
N:As written in MS but usually barred as 9/8. Some errors but other versions are easily available.
K:G
Bcd BAG|FAA cBA|Bcd BAG DGG BAG:|!
|:Bcd efg|aAA cBA|Bcd eg/f/e/f/|f2 gag BAG:|]

